X: 41
T:Popâ€™s Waltz
M:3/4
L:1/8
C:Dennis McGee
S:Blue Flame String Band, FF-275
N:Transcribed by Bruce Thomson
K:C
|z2a2g2|:â€Dâ€^f2 (3f/2g/2f/2 e fe|de ^fg af|â€Câ€e2e2eg|ed cA ce|
â€œDâ€^f2 (3/2g/2f/2 e d2|â€Gâ€B2 (3B/2c/2B/ A G2|â€Câ€c2 c2 cc|
[1[E2c2]a2g2:|[2E2[Ec][E2c2][Ec]|:â€Gâ€d2 BA BA|GA Bc dB|
â€œCâ€e2 e2 eg|ed cA ce|â€Gâ€d2 BA BA|Gg ^fa ge|â€Câ€c2 c2 cc|E[Ec][Ec][Ec][Ec][Ec]:

